resources/svg/pie-chart-o.svg

<svg xmlns="http://www.w3.org/2000/svg" viewBox="0 0 15 15" fill="none"><path d="M7.5 7.5H7C7 7.63261 7.05268 7.75979 7.14645 7.85355L7.5 7.5ZM7.5 14C3.91015 14 1 11.0899 1 7.5H0C0 11.6421 3.35786 15 7.5 15V14ZM14 7.5C14 11.0899 11.0899 14 7.5 14V15C11.6421 15 15 11.6421 15 7.5H14ZM7.5 1C11.0899 1 14 3.91015 14 7.5H15C15 3.35786 11.6421 0 7.5 0V1ZM7.5 0C3.35786 0 0 3.35786 0 7.5H1C1 3.91015 3.91015 1 7.5 1V0ZM7 0V7.5H8V0H7ZM7.72361 7.94721L13.7236 4.94721L13.2764 4.05279L7.27639 7.05279L7.72361 7.94721ZM7.14645 7.85355L12.1464 12.8536L12.8536 12.1464L7.85355 7.14645L7.14645 7.85355Z" fill="black"/></svg>

<svg xmlns="http://www.w3.org/2000/svg" viewBox="0 0 15 15" fill="none"><path d="M7.5 7.5H7a.5.5 0 00.146.354L7.5 7.5zm0 6.5A6.5 6.5 0 011 7.5H0A7.5 7.5 0 007.5 15v-1zM14 7.5A6.5 6.5 0 017.5 14v1A7.5 7.5 0 0015 7.5h-1zM7.5 1A6.5 6.5 0 0114 7.5h1A7.5 7.5 0 007.5 0v1zm0-1A7.5 7.5 0 000 7.5h1A6.5 6.5 0 017.5 1V0zM7 0v7.5h1V0H7zm.724 7.947l6-3-.448-.894-6 3 .448.894zm-.578-.093l5 5 .708-.708-5-5-.708.708z" fill="currentColor"/></svg>
